X:2087
T:N\atid, halling av Ivar Odnes
S:Etter Ivar Odnes
Z:[[http://www.bluerose.karenlmyers.org/IncipitsHalling3.html|Karen Myers (#2087)]]
Z:Upptecknad 6/2005
M:4/4
L:1/16
R:Halling
K:D
[A,16D16F16e16] |: [M:2/4]SF2>E2 D2DE | F2FD GEF2- | F2FE D2DE | B,2B,E D2G,2 | F2FE D2DE |
F2FD GEF2- | F2FE D2DE | B,2[B,2E2] "^Fine" D4  :| f2>g2 a2ag | e2eg f2D2 |
fefg a2ag | e2ef D4 | fefg a2ag | e2eg f2D2 | fefg a2ag |"^D.S. al Fine" e2ef D4  |]
